X:120
T:Duke of York, The
M:6/8
L:1/8
B:Thompson's Compleat Collection of 200 Favourite Country Dances, vol. 2 (London, 1765)
Z:Transcribed and edited by Flynn Titford-Mock, 2007
Z:abc's:AK/Fiddler's Companion
K:G
g2d "tr"c2B | AFD AFD | g2d c2B | AFD DFA | g2d "tr"c2B | AFD AFD | E2c B2A | G3 G,3 :|
|: G2A B2c | d2e dBG | dBG "tr"c2B | A2G AFD | AFD DFA | c2B A2B | c2e dBG | E2F G3 :|

